!!!COM: Bach, Johann Sebastian
!!!OPR: Die Kunst der Fuge
!!!XEN: The Art of Fugue
!!!OTL:
!!!OMV: 6
!!!SCT: BWV 1080
!!!SCA: Thematisch-systematisches Verzeichnis der musikalischen Werke Johann Sebastian Bach: Bach-Werke-Verzeichnis (Schmieder)
!!!YOR: Bach Gesellschaft Edition xxv,1
!!!EED: Frances Bennion
!!!ENC: Frances Bennion
!!!CDT: 1685/3//-1750/7/28/
!!!OCY: Deutschland
!!!YEC: Copyright (c) 1994, 2000 Center for Computer Assisted Research in the Humanities
!!!YEM: Rights to all derivative editions reserved.
!!!YEM: Refer to licensing agreement for further details.
!!!YEN: United States of America
**kern	**kern	**kern	**kern	**kern
*k[b-]	*k[b-]	*k[b-]	*k[b-]	*k[b-]
*d:	*d:	*d:	*d:	*d:
*clefG	*clefG	*clefG	*clefC	*clefC
*M4/4	*M4/4	*M4/4	*M4/4	*M4/4
=1	=1	=1	=1	=1
1r	1r	1r	1r	2D
.	.	.	.	4.A
.	.	.	.	8G
=2	=2	=2	=2	=2
4aa	1r	1r	1r	4.F
8.dd	.	.	.	.
.	.	.	.	8E
16ee	.	.	.	.
8.ff	.	.	.	2D
16gg	.	.	.	.
4aa	.	.	.	.
=3	=3	=3	=3	=3
4bb-	1r	2r	1r	2C#
8.aa	.	.	.	.
16gg	.	.	.	.
[4ff	.	4d	.	4.D
16ff]	.	8.a	.	.
16ee	.	.	.	.
16ff	.	.	.	8E
16gg	.	16g	.	.
=4	=4	=4	=4	=4
8.aa	1r	8.f	1r	[2F
16gg	.	16e	.	.
16ff	.	4d	.	.
16ee	.	.	.	.
16dd	.	.	.	.
16cc	.	.	.	.
4b-	.	4c#	.	8.F]
.	.	.	.	16G
[4a	.	8.d	.	8.F
.	.	16e	.	16E
=5	=5	=5	=5	=5
8.a]	1r	[4f	1r	8.D
16b	.	.	.	16DD
4..cc	.	16f]	.	8.EE
.	.	16g	.	.
.	.	16f	.	.
.	.	16e	.	16FF
.	.	4d	.	8.GG
16b	.	.	.	16AA
8.cc#	.	8.e	.	8.GG
16dd	.	16f	.	16FF
=6	=6	=6	=6	=6
[4ee	1r	4g	1r	8.EE
.	.	.	.	16E
16ee]	.	4..f	.	8.F
16ff	.	.	.	.
16ee	.	.	.	.
16dd	.	.	.	16G
4cc#	.	.	.	8.A
.	.	16e	.	16B-
8.dd	.	8.f	.	8.A
16ee	.	16g	.	16G
=7	=7	=7	=7	=7
8.ff	1r	[2a	4d	4F
16ee	.	.	.	.
8.ff	.	.	8.A	4D
16dd	.	.	16B	.
[2ee	.	8.a]	8.c	[2A
.	.	16b	16d	.
.	.	[8cc	4e	.
.	.	32cc]	.	.
.	.	32b	.	.
.	.	32a	.	.
.	.	32g#	.	.
=8	=8	=8	=8	=8
8.ee]	1r	2a	4f	1A_
16dd	.	.	.	.
8.cc	.	.	8.e	.
16b	.	.	16d	.
8.a	.	4.ee	[4c	.
16aa	.	.	.	.
8.gg	.	.	16c]	.
.	.	.	16B	.
.	.	8dd	16c	.
16ff	.	.	16d	.
=9	=9	=9	=9	=9
4ee	1r	4.cc	2.e	8.A]
.	.	.	.	16E
2.r	.	.	.	8.A
.	.	8b	.	.
.	.	.	.	16G
.	.	2a	.	8.F
.	.	.	.	16E
.	.	.	[4d	8.F
.	.	.	.	16D
=10	=10	=10	=10	=10
2r	1r	2g#	8.d]	4.E
.	.	.	16B	.
.	.	.	8.e	.
.	.	.	.	8E
.	.	.	16d	.
4a	.	4.a	8.c	8.F
.	.	.	16d	16E
8.ee	.	.	8.c	8.F#
.	.	8b	.	.
16dd	.	.	16B	16G#
=11	=11	=11	=11	=11
8.cc	1r	[2cc	8.A	8.A
16b	.	.	4e	16G
4a	.	.	.	4F
.	.	.	16d#	.
4g#	.	8.cc]	8.e	2E
.	.	16dd	16B	.
8.a	.	8.cc	8.c	.
16b	.	16b	16G#	.
=12	=12	=12	=12	=12
[4cc	1r	4..a	8.A	1r
.	.	.	16E	.
16cc]	.	.	[4F	.
16dd	.	.	.	.
16cc	.	.	.	.
16b	.	16g#	.	.
[2a	.	[4.a	16F]	.
.	.	.	16G	.
.	.	.	16F	.
.	.	.	16E	.
.	.	.	[4D	.
.	.	32a]	.	.
.	.	32g	.	.
.	.	32f	.	.
.	.	32e	.	.
=13	=13	=13	=13	=13
4.a_	1r	[2..f	8D_	1r
.	.	.	32D]	.
.	.	.	32A	.
.	.	.	32B-	.
.	.	.	32c	.
.	.	.	8.d	.
32a]	.	.	.	.
32a]	.	.	.	.
32b-	.	.	16c	.
32cc	.	.	.	.
[2dd	.	.	8.B-	.
.	.	.	16c	.
.	.	.	8.B-	.
.	.	32f]	.	.
.	.	32f	.	.
.	.	32g	16A	.
.	.	32a	.	.
=14	=14	=14	=14	=14
4.dd_	1r	[2b-	[8G	1r
.	.	.	32G]	.
.	.	.	32d	.
.	.	.	32e	.
.	.	.	32f	.
.	.	.	8.g	.
32dd]	.	.	.	.
32dd]	.	.	.	.
32ee	.	.	16f	.
32ff	.	.	.	.
[2gg	.	8.b-]	8.e	.
.	.	16b	16f	.
.	.	8dd	8.e	.
.	.	32cc#	.	.
.	.	32b	.	.
.	.	32cc#	16d	.
.	.	32dd	.	.
=15	=15	=15	=15	=15
8.gg]	1r	4..ee	4c#	4A
32ff	.	.	.	.
32ee	.	.	.	.
8.ff	.	.	2A	8.D
16gg	.	32dd	.	16E
.	.	32cc#	.	.
8.aa	.	4..dd	.	8.F
32gg	.	.	.	16G
32ff	.	.	.	.
8.ee	.	.	4r	4A
16ff#	.	16cc	.	.
=16	=16	=16	=16	=16
4gg	1r	8.b-	2d	4B-
.	.	16g	.	.
4r	.	8.f	.	8.A
.	.	16e	.	16G
4aa	.	8.d	4.a	[4F
.	.	16cc#	.	.
8.dd	.	[4dd	.	16F]
.	.	.	.	16E
.	.	.	8g	16F
16ee	.	.	.	16G
=17	=17	=17	=17	=17
8.ff	1r	8.dd]	4.f	2A
16gg	.	16b	.	.
4aa	.	8.cc#	.	.
.	.	.	8e	.
.	.	16a	.	.
4bb-	.	8.f	2d	4.r
.	.	16e	.	.
8.aa	.	8.f	.	.
.	.	.	.	8B-
16gg	.	16g	.	.
=18	=18	=18	=18	=18
[4ff	1r	4..a	2c#	8.A
.	.	.	.	16G
16ff]	.	.	.	[4.F
16ee	.	.	.	.
16ff	.	.	.	.
16gg	.	16b-	.	.
4aa	.	8.a	4.d	.
.	.	.	.	32F]
.	.	.	.	32G
.	.	16gg	.	32F
.	.	.	.	32E
4r	.	16ff	.	4D
.	.	16ee	.	.
.	.	16dd	8e	.
.	.	16cc#	.	.
=19	=19	=19	=19	=19
1r	1r	[4dd	[2f	8r
.	.	.	.	32r
.	.	.	.	32D
.	.	.	.	32E
.	.	.	.	32F
.	.	16dd]	.	[4.G
.	.	16cc	.	.
.	.	16b	.	.
.	.	16a	.	.
.	.	8.b	8.f]	.
.	.	.	.	32G]
.	.	.	.	32E
.	.	16g	16g	32F
.	.	.	.	32G
.	.	[4cc	8.f	8.A
.	.	.	16e	16G
=20	=20	=20	=20	=20
1r	1r	8.cc]	4d	8.F
.	.	32b	.	16D
.	.	32a	.	.
.	.	8.b	4r	8.G
.	.	16cc	.	16F
.	.	8.cc	2c	[8E
.	.	.	.	32E]
.	.	.	.	32C
.	.	16b-	.	32D
.	.	.	.	32E
.	.	8.a	.	8.F
.	.	32g	.	16E-
.	.	32a	.	.
=21	=21	=21	=21	=21
2r	1r	8.b-	4.F	8.D
.	.	16dd	.	16C
.	.	8.cc	.	8.D
.	.	.	8G	.
.	.	16b-	.	16E
8.r	.	4..a	4.A	8.F
16dd	.	.	.	16E
8.cc	.	.	.	8.F
.	.	.	8B-	.
16b-	.	16g	.	16G
=22	=22	=22	=22	=22
8.a	1r	8.f	2c	[4.A
16b-	.	16g	.	.
[4.cc	.	8.f	.	.
.	.	.	.	32A]
.	.	.	.	32F
.	.	16e-	.	32G
.	.	.	.	32A
.	.	4d	2d	8.B-
32cc]	.	.	.	.
32f	.	.	.	.
32g	.	.	.	16A
32a	.	.	.	.
8.b-	.	[4g	.	8.G
16b-	.	.	.	16F
=23	=23	=23	=23	=23
8.b-	1r	8.g]	4.c	8.E
32a	.	16e	.	16C
32g	.	.	.	.
8.a	.	4..f	.	4..F
.	.	.	8B-	.
16b-	.	.	.	.
8.cc	.	.	[2A	.
16cc	.	16e	.	16G
8.dd	.	8.f	.	8.F
16ee	.	16g	.	16E
=24	=24	=24	=24	=24
8.ff	1r	4a	8.A]	2D
16ee	.	.	16G	.
8.ff	.	4dd	8.A	.
16gg	.	.	16B	.
8.ee	.	4g	4c	[8C
.	.	.	.	32C]
.	.	.	.	32G
16dd	.	.	.	32A
.	.	.	.	32B
[4ee	.	4r	4r	8.c
.	.	.	.	16B-
=25	=25	=25	=25	=25
8.ee]	1r	2f	1r	8.A
32dd	.	.	.	16F
32cc#	.	.	.	.
[8dd	.	.	.	8.B-
32dd]	.	.	.	.
32cc	.	.	.	.
32b-	.	.	.	16d
32a	.	.	.	.
8.g	.	4.cc	.	[4.E
16b-	.	.	.	.
8.a	.	.	.	.
.	.	8b-	.	32E]
.	.	.	.	32C
16g	.	.	.	32D
.	.	.	.	32E
=26	=26	=26	=26	=26
[4f	1r	4.a	4c	8.F
.	.	.	.	16E
16f]	.	.	8.F	[4D
16e	.	.	.	.
16d	.	8g	.	.
16c#	.	.	16G	.
4d	.	2f	8.A	16D]
.	.	.	.	16D
.	.	.	.	16C
.	.	.	16B-	16BB-
8.r	.	.	4c	16AA
.	.	.	.	16FF
.	.	.	.	16GG
16dd	.	.	.	16AA
=27	=27	=27	=27	=27
[4g	1r	2e	4d-	16BB-
.	.	.	.	16GG
.	.	.	.	16AA
.	.	.	.	16BB-
16g]	.	.	8.c	8.C
16b-	.	.	.	.
16a	.	.	.	.
16g	.	.	16B-	16C#
16f	.	4.f	[4A	16D
16a	.	.	.	16C#
16b	.	.	.	16D
16cc#	.	.	.	16E
4dd	.	.	16A]	[4F
.	.	.	16G	.
.	.	8g	16A	.
.	.	.	16B-	.
=28	=28	=28	=28	=28
16r	1r	[2a	[4c	16F]
16cc	.	.	.	16E
16dd	.	.	.	16F
16ee	.	.	.	16G
8.ff	.	.	16c]	4..A
.	.	.	16B	.
.	.	.	16c	.
32ee	.	.	16d	.
32dd	.	.	.	.
[2cc	.	8.a]	4e	.
.	.	16b-	.	16G
.	.	8.a	4r	8.F
.	.	16g	.	16E
=29	=29	=29	=29	=29
8.cc]	1r	[2f	1r	[4.D
16a	.	.	.	.
8.dd	.	.	.	.
.	.	.	.	32D]
.	.	.	.	32DD
16cc	.	.	.	32EE
.	.	.	.	32FF
[2b-	.	8.f]	.	[4.GG
.	.	16d	.	.
.	.	8.g	.	.
.	.	.	.	32GG]
.	.	.	.	32FF
.	.	16f	.	32EE
.	.	.	.	32DD
=30	=30	=30	=30	=30
8.b-]	1r	[2e	1r	[4.CC
16g	.	.	.	.
8.cc	.	.	.	.
.	.	.	.	32CC]
.	.	.	.	32C
16b-	.	.	.	32D
.	.	.	.	32E
[2a	.	8.e]	.	[4.F
.	.	16c	.	.
.	.	8.f	.	.
.	.	.	.	32F]
.	.	.	.	32E
.	.	16e	.	32D
.	.	.	.	32C
=31	=31	=31	=31	=31
8.a]	1r	2.d	2D]	2BB-
32g	.	.	.	.
32f	.	.	.	.
8.g	.	.	.	.
16e	.	.	.	.
8.f	.	.	4.A	[2AA
16g	.	.	.	.
[4e	.	4c#	.	.
.	.	.	8G	.
=32	=32	=32	=32	=32
8.e]	1r	4a	4.F	1AA_
32d	.	.	.	.
32c#	.	.	.	.
4..d	.	8.d	.	.
.	.	.	8E	.
.	.	16e	.	.
.	.	8.f	2D	.
16e	.	16g	.	.
8.f	.	4a	.	.
16d	.	.	.	.
=33	=33	=33	=33	=33
[8g	1r	4b-	2C#	4.AA]
32g]	.	.	.	.
32ee	.	.	.	.
32ff	.	.	.	.
32gg	.	.	.	.
8.ff	.	8.a	.	.
.	.	.	.	8AA
16ee	.	16g	.	.
8.dd	.	[4f	4.D	8.BB-
16cc	.	.	.	16AA
4b-	.	16f]	.	4GG
.	.	16e	.	.
.	.	16f	8E	.
.	.	16g	.	.
=34	=34	=34	=34	=34
8a	1r	8.a	[2F	8.FF
2..r	.	.	.	.
.	.	16b-	.	16GG
.	.	8.cc	.	8.AA
.	.	16dd	.	16BB-
.	.	8.g	8.F]	[2C
.	.	16ee-	16G	.
.	.	8.a	8.F	.
.	.	32b-	16E-	.
.	.	32cc	.	.
=35	=35	=35	=35	=35
2dd	1r	8.f#	8.D	4.C]
.	.	16a	16F#	.
.	.	4..d	8.G	.
.	.	.	.	8C
.	.	.	16A	.
4.g	.	.	4B-	4.BB-
.	.	16d	.	.
.	.	8.e	4c	.
8a	.	.	.	8AA
.	.	16f#	.	.
=36	=36	=36	=36	=36
4.b-	1r	8.g	[4d	4GG
.	.	16f#	.	.
.	.	8.g	16d]	8.D
.	.	.	16c	.
8cc	.	.	16B-	.
.	.	16a	16A	16C
2dd	.	8.b-	4G	8.BB-
.	.	32cc	.	16AA
.	.	32dd	.	.
.	.	16cc	4r	4GG
.	.	16b-	.	.
.	.	16a	.	.
.	.	16g	.	.
=37	=37	=37	=37	=37
2ee-	1r	8.cc	2r	4FF#
.	.	32b-	.	.
.	.	32a	.	.
.	.	8.b-	.	8.GG
.	.	16f#	.	16AA
4.dd	.	8.g	4d	[4BB-
.	.	32a	.	.
.	.	32b-	.	.
.	.	8.e	8.G	16BB-]
.	.	.	.	16C
8cc	.	.	.	16BB-
.	.	16f#	16A	16AA
=38	=38	=38	=38	=38
[2b-	1r	4g	8.B-	8GG
.	.	.	.	[4G
.	.	.	16c	.
.	.	2.r	4d	.
.	.	.	.	32G]
.	.	.	.	32F
.	.	.	.	32E-
.	.	.	.	32D
8.b-]	.	.	4e-	8.C
16a	.	.	.	16F
8.b-	.	.	8.d	8.G
16cc	.	.	16c	16A
=39	=39	=39	=39	=39
[4dd	1r	1r	[4B-	8.B-
.	.	.	.	16A
16dd]	.	.	16B-]	4..G
16ee-	.	.	16A	.
16dd	.	.	16B-	.
16cc	.	.	16c	.
16b-	.	.	[4d	.
16dd	.	.	.	.
16ee-	.	.	.	.
16ff	.	.	.	16F
[4gg	.	.	16d]	[4E-
.	.	.	16G	.
.	.	.	16A	.
.	.	.	16B	.
=40	=40	=40	=40	=40
16gg]	1r	1r	4c	8.E-]
16aa-	.	.	.	.
16gg	.	.	.	.
16ff	.	.	.	16D
16ee-	.	.	2.r	8.C
16dd	.	.	.	.
16cc	.	.	.	.
16b-	.	.	.	16D
8.a	.	.	.	16E-
.	.	.	.	16G
.	.	.	.	16F
32g	.	.	.	16E-
32f	.	.	.	.
[4b-	.	.	.	16D
.	.	.	.	16C
.	.	.	.	16BB-
.	.	.	.	16AA
=41	=41	=41	=41	=41
16b-]	1r	1r	1r	8.GG
16a	.	.	.	.
16g	.	.	.	.
16a	.	.	.	16FF
16b-	.	.	.	8.GG
16cc	.	.	.	.
16dd	.	.	.	.
16ee	.	.	.	16BB-
8.ff	.	.	.	16AA
.	.	.	.	16FF
.	.	.	.	16GG
16ee-	.	.	.	16AA
16dd	.	.	.	16BB-
16cc	.	.	.	16C
16b-	.	.	.	16D
16a	.	.	.	16E-
=42	=42	=42	=42	=42
8.b-	1r	4f	1r	4D
32cc	.	.	.	.
32dd	.	.	.	.
8.g	.	8.B-	.	4E-
16gg	.	16c	.	.
[8b-	.	8.d	.	[2F
32b-]	.	.	.	.
32a	.	.	.	.
32g	.	16e-	.	.
32a	.	.	.	.
8.a	.	4f	.	.
16b-	.	.	.	.
=43	=43	=43	=43	=43
4b-	1r	4g	1r	16F]
.	.	.	.	32E-
.	.	.	.	32D
.	.	.	.	16E-
.	.	.	.	16C
8.r	.	8.f	.	8.AA
16cc	.	16e-	.	32GG
.	.	.	.	32AA
[8f	.	[4d	.	8.BB-
32f]	.	.	.	.
32g	.	.	.	.
32f	.	.	.	16B-
32e	.	.	.	.
8.f	.	16d]	.	8.A
.	.	16c	.	.
.	.	16d	.	.
16g	.	16e	.	16G
=44	=44	=44	=44	=44
[4a	1r	8.f	1r	8.F
.	.	16c	.	16FF
16a]	.	2f	.	8.EE-
16g	.	.	.	.
16a	.	.	.	.
16b	.	.	.	16DD
8.cc	.	.	.	8.CC
16g	.	.	.	16C
[4cc	.	16e	.	8.BB-
.	.	16d	.	.
.	.	16e	.	.
.	.	16f#	.	16AA
=45	=45	=45	=45	=45
4cc]	1r	8.g	1r	8.GG
.	.	16d	.	16G
16b	.	2g	.	8.F
16a	.	.	.	.
16b	.	.	.	.
16cc#	.	.	.	16E
8.dd	.	.	.	[8D
.	.	.	.	32D]
.	.	.	.	32A
16ee	.	.	.	32B
.	.	.	.	32c#
[4ff	.	[8f	.	8.d
.	.	32f]	.	.
.	.	32a	.	.
.	.	32b-	.	16c
.	.	32cc	.	.
=46	=46	=46	=46	=46
8.ff]	1r	4dd	1r	8.B-
16ff	.	.	.	16A
8.ee	.	2g	.	8.B-
16dd	.	.	.	16G
8.cc#	.	.	.	4A
16a	.	.	.	.
[4dd	.	8.f	.	4r
.	.	16d	.	.
=47	=47	=47	=47	=47
8.dd]	1r	4e	1r	2AA
32cc	.	.	.	.
32b	.	.	.	.
4..cc	.	8.a	.	.
.	.	16g	.	.
.	.	8.f	.	4.DD
32b-	.	16e	.	.
32a	.	.	.	.
[4b-	.	8.d	.	.
.	.	.	.	8EE
.	.	16c#	.	.
=48	=48	=48	=48	=48
16b-]	1r	[2d	4D	4.FF
16b-	.	.	.	.
16a	.	.	.	.
16g	.	.	.	.
4..f	.	.	8.A	.
.	.	.	.	8GG
.	.	.	16G	.
.	.	8.d]	8.F	2AA
16g	.	16e	16E	.
8.a	.	8.f	4D	.
16b-	.	16g	.	.
=49	=49	=49	=49	=49
8.g	1r	4e	4C#	2BB-
32ee	.	.	.	.
32ff	.	.	.	.
8.gg	.	8.r	8.D	.
16cc#	.	16g	16E	.
8.dd	.	8.f	[4F	4.AA
16ee	.	16g	.	.
8.cc#	.	[4a	16F]	.
.	.	.	16G	.
.	.	.	16F	8GG
16dd	.	.	16E	.
=50	=50	=50	=50	=50
8.dd	1r	4a]	8.D	[2FF
16ee	.	.	16C#	.
8.ff	.	4.r	8.D	.
16gg	.	.	16E	.
[4.aa	.	.	8F	8.FF]
.	.	32r	4.r	.
.	.	32ee	.	.
.	.	32dd	.	16EE
.	.	32cc#	.	.
.	.	[4dd	.	8.FF
32aa]	.	.	.	.
32aa	.	.	.	.
32gg	.	.	.	16GG
32ff	.	.	.	.
=51	=51	=51	=51	=51
[2ee	1r	4.dd_	8r	[4..AA
.	.	.	32r	.
.	.	.	32E	.
.	.	.	32F#	.
.	.	.	32G#	.
.	.	.	4.A	.
.	.	32dd]	.	.
.	.	32dd]	.	.
.	.	32cc	.	8..AA]
.	.	32b	.	.
8.ee]	.	4cc	.	.
.	.	.	4.r	.
.	.	.	.	32C
16dd	.	.	.	32BB
.	.	.	.	32AA
8.ee	.	4r	.	[8GG
.	.	.	.	32GG]
.	.	.	.	32AA
16ff	.	.	.	32GG
.	.	.	.	32FF
=52	=52	=52	=52	=52
[4.gg	1r	8r	4..r	8.EE
.	.	32r	.	.
.	.	32dd	.	.
.	.	32cc	.	16DD
.	.	32b	.	.
.	.	[4..cc	.	8.EE
32gg]	.	.	.	.
32gg	.	.	.	.
32ff	.	.	8..r	16FF
32ee	.	.	.	.
[2dd	.	.	.	[2GG
.	.	.	32D	.
.	.	8..cc]	32E	.
.	.	.	32F#	.
.	.	.	[4G	.
.	.	32cc	.	.
.	.	32b-	.	.
.	.	32a	.	.
=53	=53	=53	=53	=53
8.dd]	1r	4b-	8G]	8GG_
.	.	.	2..r	32GG]
.	.	.	.	32BB-
16cc#	.	.	.	32AA
.	.	.	.	32GG]
8.dd	.	4.r	.	[8FF
.	.	.	.	32FF]
.	.	.	.	32GG
16ee	.	.	.	32FF
.	.	.	.	32EE
[4.ff	.	.	.	8.DD
.	.	32r	.	.
.	.	32cc	.	.
.	.	32b-	.	16CC
.	.	32a	.	.
.	.	[4b-	.	8.DD
32ff]	.	.	.	.
32ff	.	.	.	.
32ee	.	.	.	16EE
32dd	.	.	.	.
=54	=54	=54	=54	=54
[2cc	1r	4.b-_	8r	[2FF
.	.	.	32r	.
.	.	.	32C	.
.	.	.	32D	.
.	.	.	32E	.
.	.	.	[4F	.
.	.	32b-]	.	.
.	.	32b-]	.	.
.	.	32a	.	.
.	.	32g	.	.
8.cc]	.	[2a	16F]	8FF]
.	.	.	16G	.
.	.	.	16F	4.r
16cc	.	.	16E	.
8.ff	.	.	16D	.
.	.	.	16F	.
.	.	.	16G	.
16ee	.	.	16A	.
=55	=55	=55	=55	=55
8.dd	1r	8.a]	16B-	1r
.	.	.	16c	.
.	.	.	16B-	.
16cc	.	16d	16A	.
4..b-	.	8.g	16G	.
.	.	.	16F	.
.	.	.	16E	.
.	.	16f	16D	.
.	.	8.e	16C#	.
.	.	.	16G	.
.	.	.	16A	.
16e	.	16d	16B-	.
8.a	.	4c#	16A	.
.	.	.	16G	.
.	.	.	16F	.
16g	.	.	16E	.
=56	=56	=56	=56	=56
8.f	1r	[2d	16D	1r
.	.	.	16A	.
.	.	.	16B-	.
16f#	.	.	16c	.
8.g	.	.	16B-	.
.	.	.	16A	.
.	.	.	16G	.
16a	.	.	16F#	.
8.b-	.	16d]	[2G	.
.	.	16d	.	.
.	.	16e	.	.
16b	.	16f	.	.
8.cc#	.	16e	.	.
.	.	16d	.	.
.	.	16c#	.	.
16dd	.	16B	.	.
=57	=57	=57	=57	=57
4ee	1r	[4c#	16G]	1r
.	.	.	16B-	.
.	.	.	16A	.
.	.	.	16G	.
8.aa	.	16c#]	2F	.
.	.	16A	.	.
.	.	16B	.	.
16gg	.	16c#	.	.
8.ff	.	8.d	.	.
16ee	.	16e	.	.
4dd	.	8.f	4B-	.
.	.	16g	.	.
=58	=58	=58	=58	=58
4cc#	1r	2a	4A	8.r
.	.	.	.	16AA
8.dd	.	.	4r	8.BB
16ee	.	.	.	16C#
[4ff	.	4.d	4d	8.D
.	.	.	.	16E
16ff]	.	.	8.a	[4F
16gg	.	.	.	.
16ff	.	8e	.	.
16ee	.	.	16g	.
=59	=59	=59	=59	=59
4dd	1r	4.f	8.f	8F_
.	.	.	.	32F]
.	.	.	.	32F]
.	.	.	16e	32G
.	.	.	.	32A
2.r	.	.	4d	8.B-
.	.	8g	.	.
.	.	.	.	16BB-
.	.	2a	4c#	16AA
.	.	.	.	16B-
.	.	.	.	16A
.	.	.	.	16G
.	.	.	8.d	16F
.	.	.	.	16E
.	.	.	.	16D
.	.	.	16e	16C#
=60	=60	=60	=60	=60
1r	1r	2b-	[4f	16D
.	.	.	.	16c
.	.	.	.	16B-
.	.	.	.	16A
.	.	.	16f]	16G
.	.	.	16a	16F
.	.	.	16g	16E
.	.	.	16f	16D
.	.	4.a	16e	16C#
.	.	.	16f	16d
.	.	.	16e	16c#
.	.	.	16d	16B
.	.	.	4c#	16A
.	.	.	.	16G
.	.	8g	.	16F
.	.	.	.	16E
=61	=61	=61	=61	=61
1r	1r	[2f	8.d	16D
.	.	.	.	16E
.	.	.	.	16D
.	.	.	16A	16C
.	.	.	[8d	16BB-
.	.	.	.	16AA
.	.	.	32d]	16GG
.	.	.	32c	.
.	.	.	32B-	16FF
.	.	.	32A	.
.	.	8.f]	8.B-	16GG
.	.	.	.	16D
.	.	.	.	16C
.	.	16e	16G	16BB-
.	.	8.f	[4c	16AA
.	.	.	.	16GG
.	.	.	.	16FF
.	.	16g	.	16EE
=62	=62	=62	=62	=62
1r	1r	[4a	4c]	16FF
.	.	.	.	16C
.	.	.	.	16D
.	.	.	.	16E
.	.	16a]	2.r	16F
.	.	16c	.	16G
.	.	16d	.	16F
.	.	16e	.	16E
.	.	16f	.	16D
.	.	16g	.	16F
.	.	16f	.	16G
.	.	16e	.	16A
.	.	16d	.	16B-
.	.	16f	.	16c
.	.	16g	.	16B-
.	.	16a	.	16A
=63	=63	=63	=63	=63
1r	1r	16b-	2r	16G
.	.	16cc	.	16GG
.	.	16b-	.	16AA
.	.	16a	.	16BB-
.	.	16g	.	16C
.	.	16G	.	16D
.	.	16A	.	16C
.	.	16B-	.	16BB-
.	.	16c	4F	16AA
.	.	16d	.	16BB-
.	.	16c	.	16AA
.	.	16B-	.	16GG
.	.	16A	8.c	[4FF
.	.	16B-	.	.
.	.	16A	.	.
.	.	16G	16B-	.
=64	=64	=64	=64	=64
2r	1r	[8F	8.A	4.FF_
.	.	32F]	.	.
.	.	32A	.	.
.	.	32B	16G	.
.	.	32c#	.	.
.	.	4..d	4F	.
.	.	.	.	32FF]
.	.	.	.	32EE
.	.	.	.	32FF]
.	.	.	.	32GG
2a	.	.	4E	16AA
.	.	.	.	16B-
.	.	.	.	16A
.	.	16c#	.	16G
.	.	8.d	8.F	16F
.	.	.	.	16E
.	.	.	.	[8D
.	.	16e	16G	.
=65	=65	=65	=65	=65
4.d	1r	4f	[4A	16D]
.	.	.	.	16C
.	.	.	.	16BB-
.	.	.	.	16AA
.	.	4r	16A]	16BB-
.	.	.	16B-	16GG
8e	.	.	16A	8C#
.	.	.	16G	.
4.f	.	4d	16F	16D
.	.	.	16G	16BB-
.	.	.	16F	16AA
.	.	.	16E	16GG
.	.	8.a	8.D	16FF
.	.	.	.	16GG
8g	.	.	.	16FF
.	.	16g	16A	16EE
=66	=66	=66	=66	=66
2a	1r	8.f	8.d	16DD
.	.	.	.	16AA
.	.	.	.	16BB-
.	.	16e	16c	16C
.	.	4d	8.B-	16D
.	.	.	.	16E
.	.	.	.	8F
.	.	.	16A	.
2b-	.	4c#	8G	16r
.	.	.	.	16E
.	.	.	4.r	16F
.	.	.	.	16G
.	.	8.d	.	16F
.	.	.	.	16E
.	.	.	.	16D
.	.	16e	.	16C#
=67	=67	=67	=67	=67
4.a	1r	[4f	16r	[2.D
.	.	.	16E	.
.	.	.	16F	.
.	.	.	16G	.
.	.	16f]	[4A	.
.	.	16g	.	.
8g	.	16f	.	.
.	.	16e	.	.
[2f	.	8.d	16A]	.
.	.	.	16B-	.
.	.	.	16A	.
.	.	16A	16G	.
.	.	8.B-	[4F	16D]
.	.	.	.	16E-
.	.	.	.	16D
.	.	16c	.	16C
=68	=68	=68	=68	=68
8.f]	1r	[2d	16F]	[4BB-
.	.	.	16E	.
.	.	.	16D	.
16e	.	.	16C#	.
8.f	.	.	2D	16BB-]
.	.	.	.	16BB-
.	.	.	.	16AA
16g	.	.	.	16GG
[2a	.	8.d]	.	4FF#
.	.	16A	.	.
.	.	8.d	8.r	4r
.	.	16c	16D	.
=69	=69	=69	=69	=69
8a_	1r	8.B-	8.G	4..r
32a]	.	.	.	.
32d	.	.	.	.
32e	.	16A	16F	.
32f	.	.	.	.
[2.g	.	4..B-	8.E	.
.	.	.	16D	16GG
.	.	.	4..E	[8C
.	.	.	.	32C]
.	.	.	.	32D
.	.	16G	.	32C
.	.	.	.	32BB-
.	.	8.c	.	4AA
.	.	16B-	16C	.
=70	=70	=70	=70	=70
8g_	1r	8.A	8.F	4..r
32g]	.	.	.	.
32c	.	.	.	.
32d	.	16G	16E	.
32e	.	.	.	.
4..f	.	2A	8.D	.
.	.	.	16C#	16FF
.	.	.	4..D	[8BB-
.	.	.	.	32BB-]
.	.	.	.	32C
16d	.	.	.	32BB-
.	.	.	.	32AA
8.g]	.	8.G	.	8.BB-
16f	.	16d	[16G	16BB
=71	=71	=71	=71	=71
8.e	1r	8.c	4G]	8.C
16g	.	16e	.	16BB-
8.cc	.	8.f	8.r	8.AA
16b-	.	16g	16E	16C
8.a]	.	8.f	8.A	8.F
16cc	.	16g	16G	16E-
8.ff	.	[4a	8.F	8.D
16ee-	.	.	16c	16F
=72	=72	=72	=72	=72
4.dd	1r	8.a]	8.d	8.B-
.	.	16f#	16c	16A
.	.	8.g	8.B-	8.G
16r	.	.	.	.
16dd	.	16a	16A	16F
4.cc#	.	4.b-	4.G	8.E
.	.	.	.	16F
.	.	.	.	8.E
16r	.	16r	16r	.
16ee	.	16b-	16G	16D
=73	=73	=73	=73	=73
4a	1r	4e	4G	4C#
8r	.	8r	8r	8r
32ee	.	8cc#	8A	8AA
32ff	.	.	.	.
16gg	.	.	.	.
16ff	.	8dd	8A	8.D
16ee	.	.	.	.
16dd	.	4r	4r	.
16cc#	.	.	.	16E
[4dd	.	.	.	8.F
.	.	16r	16r	.
.	.	16e	16B-	16G
=74	=74	=74	=74	=74
8.dd]	1r	8.f	8.A	8.A
16ee	.	16g	16B-	16G
8.cc#	.	8.e	8A	8.A
.	.	.	8r	.
16dd	.	16g	.	16AA
4dd	.	[8g	4A	[2D
.	.	32g]	.	.
.	.	32g	.	.
.	.	32f#	.	.
.	.	32e	.	.
4r	.	8.f#	8.d	.
.	.	16a	16c	.
=75	=75	=75	=75	=75
2r	1r	8.d	8.B-	1D_
.	.	16c	16A	.
.	.	8.B-	4G	.
.	.	16e-	.	.
2dd	.	[8A	4F#	.
.	.	32A]	.	.
.	.	32a	.	.
.	.	32b-	.	.
.	.	32cc	.	.
.	.	16b-	8.G	.
.	.	16a	.	.
.	.	16g	.	.
.	.	16f#	16A	.
=76	=76	=76	=76	=76
4.g	2r	8.g	[4B-	1D_
.	.	16d	.	.
.	.	8.e	16B-]	.
.	.	.	16c	.
8a	.	.	16B-	.
.	.	16f#	16A	.
4.b-	8.r	4g	4.G	.
.	16dd	.	.	.
.	8.gg	8.dd	.	.
8cc	.	.	8A	.
.	16ff#	16cc	.	.
=77	=77	=77	=77	=77
2dd	8.gg	8.b-	8.B-	1D_
.	16aa	16a	16c	.
.	8.bb-	4g	8.d	.
.	16gg	.	16B-	.
2ee-	8.aa	4f#	8.c	.
.	32bb-	.	16A	.
.	32ccc	.	.	.
.	16bb-	8.g	8.B-	.
.	16aa	.	.	.
.	16gg	.	.	.
.	16ff#	16a	16c	.
=78	=78	=78	=78	=78
4.dd	[1gg	[4b-	[8d	1D_
.	.	.	32d]	.
.	.	.	32D	.
.	.	.	32E	.
.	.	.	32F#	.
.	.	16b-]	8.G	.
.	.	16cc	.	.
8cc	.	16b-	.	.
.	.	16a	16A	.
[2b-	.	[4g	8.B-	.
.	.	.	16c	.
.	.	16g]	16d	.
.	.	16a	16c	.
.	.	16g	16B-	.
.	.	16f#	16A	.
=79	=79	=79	=79	=79
8.b-]	8.gg]	8e	8G	1D]
.	.	4r	4r	.
16a	16ff#	.	.	.
8.b-	8.gg	.	.	.
.	.	16r	16r	.
16cc#	16ee	16g	16B- 16e 16G	.
2dd	2ff#	2a	2d 2A 2F#	.
==	==	==	==	==
*-	*-	*-	*-	*-
!!!RWG1: This file contains only pitch and duration data.
!!!RWG2: Transposing instruments are not transposed.
!!!RWG3: Spines may have incompatible meters.
!!!RWG4: Durations of rests and tied notes may be interpreted.
!!!RWG: Key is interpreted using the Humdrum key tool.
!!!AFT: stage1
!!!END: 1997/04/15/
!!format changes:
!!content changes:
!!public access: complete
!!!KEY: 1865363129
!!!EMD: Converted from MuseData to Humdrum Dec 19, 2000, by Andreas Kornstaedt using muse2kern.
